data/zen-kurenaido.svg

<svg width="79.786" height="20.272" viewBox="0 0 79.786 20.272" xmlns="http://www.w3.org/2000/svg"><path transform="translate(0 16.24) scale(.014 -.014)" d="m72 0q-14 0-21 13-4 5-4 12 0 8 4 13 96 164 161 274t104.5 177.5 60 102 27.5 46.5 7 12h-313q-10 0-17 7.5t-7 17.5 7 17.5 17 7.5h357q15 0 21-13 3-4 3-12 0-5-3-13-96-164-161-274t-104.5-177.5-60-102-27.5-46.5-7-12h330q11 0 18-7t7-18q0-10-7-17.5t-18-7.5z"/><path transform="translate(7.364 16.24) scale(.014 -.014)" d="m230-13q-85 0-134 58.5t-49 158.5q0 101 49 159t134 58q74 0 124.5-51t54.5-138v-3q0-9-7-16-6-7-17-7h-290q0-77 32.5-124t102.5-47q36 0 67.5 15.5t48.5 40.5q6 8 15.5 10t17.5-4q8-5 10-15t-4-18q-24-35-65.5-56t-89.5-21zm-132 266h259q-10 57-43.5 88t-83.5 31q-54 0-87.5-31t-44.5-88z"/><path transform="translate(13.874 16.24) scale(.014 -.014)" d="m80-13q-10 0-16.5 6.5t-6.5 16.5v388q0 10 6.5 17t16.5 7 17-7 7-17v-33q23 26 55 41t69 15q69 0 108.5-45.5t39.5-123.5v-240q0-10-6.5-17t-16.5-7-17 7-7 17v240q0 23-7 51t-28.5 48.5-65.5 20.5q-58 0-91-32t-33-91v-239q0-10-7-16.5t-17-6.5z"/><path transform="translate(23.716 16.24) scale(.014 -.014)" d="m100-13q-10 0-17.5 7t-7.5 17v678q0 11 7.5 18.5t17.5 7.5q11 0 18-7.5t7-18.5v-371l362 387q7 8 17 8.5t17-7.5q8-7 8.5-17t-7.5-18l-234-252 254-394q6-8 3.5-18.5t-10.5-15.5q-9-6-19.5-3.5t-15.5 10.5l-247 383-128-137v-233q0-10-7-17t-18-7z"/><path transform="translate(31.962 16.24) scale(.014 -.014)" d="m205-13q-69 0-108.5 45t-39.5 124v239q0 10 6.5 17t16.5 7 17-7 7-17v-239q0-23 7-51.5t28.5-49.5 65.5-21q59 0 91.5 32t32.5 92v238q0 10 7 17.5t17 7.5 16.5-7.5 6.5-17.5v-386q0-10-6.5-16.5t-16.5-6.5-17 6.5-7 16.5v31q-23-25-54.5-39.5t-69.5-14.5z"/><path transform="translate(38.024 16.24) scale(.014 -.014)" d="m81-13q-10 0-17 7t-7 16v386q0 10 7 17t17 7 16.5-7 6.5-17v-25q15 18 42 31.5t52 17.5q35 5 71-5.5t64.5-35.5 39.5-66q3-9-2-17.5t-14-11.5q-10-2-18.5 3t-10.5 14q-8 29-28 46t-45.5 23-49.5 2q-43-5-72-32t-29-86v-244q0-9-6.5-16t-16.5-7z"/><path transform="translate(43.778 16.24) scale(.014 -.014)" d="m230-13q-85 0-134 58.5t-49 158.5q0 101 49 159t134 58q74 0 124.5-51t54.5-138v-3q0-9-7-16-6-7-17-7h-290q0-77 32.5-124t102.5-47q36 0 67.5 15.5t48.5 40.5q6 8 15.5 10t17.5-4q8-5 10-15t-4-18q-24-35-65.5-56t-89.5-21zm-132 266h259q-10 57-43.5 88t-83.5 31q-54 0-87.5-31t-44.5-88z"/><path transform="translate(50.288 16.24) scale(.014 -.014)" d="m80-13q-10 0-16.5 6.5t-6.5 16.5v388q0 10 6.5 17t16.5 7 17-7 7-17v-33q23 26 55 41t69 15q69 0 108.5-45.5t39.5-123.5v-240q0-10-6.5-17t-16.5-7-17 7-7 17v240q0 23-7 51t-28.5 48.5-65.5 20.5q-58 0-91-32t-33-91v-239q0-10-7-16.5t-17-6.5z"/><path transform="translate(56.35 16.24) scale(.014 -.014)" d="m367-14q-10 0-17 6.5t-7 16.5v8l-123-24q-46-9-78-5t-54 20q-16 13-25.5 32.5t-11.5 44.5q-6 58 25.5 95.5t97.5 48.5l169 29v28q0 20-6.5 42.5t-26.5 33.5q-16 10-41 10-62 0-153-56-9-5-18-2.5t-14 10.5q-6 9-3.5 18.5t10.5 13.5q59 36 103 49.5t75 13.5q21 0 36.5-4.5t26.5-10.5q29-16 44-46.5t15-71.5v-277q0-10-6.5-16.5t-17.5-6.5zm-155 55 131 24v145l-160-27q-41-7-59.5-23t-22.5-34.5-3-35.5q3-31 19-43 24-18 95-6z"/><path transform="translate(62.622 16.24) scale(.014 -.014)" d="m182-14q-10 0-16.5 6.5t-6.5 16.5v349h-115q-10 0-17 7.5t-7 17.5 7 16.5 17 6.5h138q11 0 18-6.5t7-16.5v-374q0-10-7-16.5t-18-6.5zm-12 601q-14 0-23 8t-9 18v62q0 10 9 18.5t23 8.5 22.5-8.5 8.5-18.5v-62q0-10-8.5-18t-22.5-8z"/><path transform="translate(66.57 16.24) scale(.014 -.014)" d="m385-14q-10 0-16.5 6.5t-6.5 16.5v42q-23-29-56-46.5t-76-17.5q-85 0-134 58.5t-49 158.5q0 101 49 159t134 58q43 0 76-18t56-47v351q0 10 6.5 17t16.5 7 17-7 7-17v-698q0-10-7-16.5t-17-6.5zm-155 49q64 0 98 44t34 125q0 80-34 124t-98 44-100-44-36-124q0-81 36-125t100-44z"/><path transform="translate(73.346 16.24) scale(.014 -.014)" d="m230-13q-85 0-134 58.5t-49 158.5q0 101 49 159t134 58q84 0 133.5-58t49.5-159q0-100-49.5-158.5t-133.5-58.5zm0 48q65 0 100 44t35 125q0 80-35 124t-100 44q-64 0-100-44t-36-124q0-81 36-125t100-44z"/></svg>

<?xml version="1.0" encoding="utf-8" ?>
<svg baseProfile="tiny" height="100%" version="1.2" width="100%" xmlns="http://www.w3.org/2000/svg" xmlns:ev="http://www.w3.org/2001/xml-events" xmlns:xlink="http://www.w3.org/1999/xlink"><defs /><g><path d="M72 0Q58 0 51 13Q47 18 47 25Q47 33 51 38Q147 202 212.0 312.0Q277 422 316.5 489.5Q356 557 376.5 591.5Q397 626 404.0 638.0Q411 650 411 650H98Q88 650 81.0 657.5Q74 665 74 675Q74 685 81.0 692.5Q88 700 98 700H455Q470 700 476 687Q479 683 479 675Q479 670 476 662Q380 498 315.0 388.0Q250 278 210.5 210.5Q171 143 150.5 108.5Q130 74 123.0 62.0Q116 50 116 50H446Q457 50 464.0 43.0Q471 36 471 25Q471 15 464.0 7.5Q457 0 446 0Z" transform="translate(0.0, 72) scale(0.072, -0.072)" /><path d="M230 -13Q145 -13 96.0 45.5Q47 104 47 204Q47 305 96.0 363.0Q145 421 230 421Q304 421 354.5 370.0Q405 319 409 232V229Q409 220 402 213Q396 206 385 206H95Q95 129 127.5 82.0Q160 35 230 35Q266 35 297.5 50.5Q329 66 346 91Q352 99 361.5 101.0Q371 103 379 97Q387 92 389.0 82.0Q391 72 385 64Q361 29 319.5 8.0Q278 -13 230 -13ZM98 253H357Q347 310 313.5 341.0Q280 372 230 372Q176 372 142.5 341.0Q109 310 98 253Z" transform="translate(37.872, 72) scale(0.072, -0.072)" /><path d="M80 -13Q70 -13 63.5 -6.5Q57 0 57 10V398Q57 408 63.5 415.0Q70 422 80 422Q90 422 97.0 415.0Q104 408 104 398V365Q127 391 159.0 406.0Q191 421 228 421Q297 421 336.5 375.5Q376 330 376 252V12Q376 2 369.5 -5.0Q363 -12 353 -12Q343 -12 336.0 -5.0Q329 2 329 12V252Q329 275 322.0 303.0Q315 331 293.5 351.5Q272 372 228 372Q170 372 137.0 340.0Q104 308 104 249V10Q104 0 97.0 -6.5Q90 -13 80 -13Z" transform="translate(71.352, 72) scale(0.072, -0.072)" /><path d="M100 -13Q90 -13 82.5 -6.0Q75 1 75 11V689Q75 700 82.5 707.5Q90 715 100 715Q111 715 118.0 707.5Q125 700 125 689V318L487 705Q494 713 504.0 713.5Q514 714 521 706Q529 699 529.5 689.0Q530 679 522 671L288 419L542 25Q548 17 545.5 6.5Q543 -4 535 -9Q526 -15 515.5 -12.5Q505 -10 500 -2L253 381L125 244V11Q125 1 118.0 -6.0Q111 -13 100 -13Z" transform="translate(121.968, 72) scale(0.072, -0.072)" /><path d="M205 -13Q136 -13 96.5 32.0Q57 77 57 156V395Q57 405 63.5 412.0Q70 419 80 419Q90 419 97.0 412.0Q104 405 104 395V156Q104 133 111.0 104.5Q118 76 139.5 55.0Q161 34 205 34Q264 34 296.5 66.0Q329 98 329 158V396Q329 406 336.0 413.5Q343 421 353 421Q363 421 369.5 413.5Q376 406 376 396V10Q376 0 369.5 -6.5Q363 -13 353 -13Q343 -13 336.0 -6.5Q329 0 329 10V41Q306 16 274.5 1.5Q243 -13 205 -13Z" transform="translate(164.376, 72) scale(0.072, -0.072)" /><path d="M81 -13Q71 -13 64.0 -6.0Q57 1 57 10V396Q57 406 64.0 413.0Q71 420 81 420Q91 420 97.5 413.0Q104 406 104 396V371Q119 389 146.0 402.5Q173 416 198 420Q233 425 269.0 414.5Q305 404 333.5 379.0Q362 354 373 313Q376 304 371.0 295.5Q366 287 357 284Q347 282 338.5 287.0Q330 292 328 301Q320 330 300.0 347.0Q280 364 254.5 370.0Q229 376 205 372Q162 367 133.0 340.0Q104 313 104 254V10Q104 1 97.5 -6.0Q91 -13 81 -13Z" transform="translate(195.552, 72) scale(0.072, -0.072)" /><path d="M230 -13Q145 -13 96.0 45.5Q47 104 47 204Q47 305 96.0 363.0Q145 421 230 421Q304 421 354.5 370.0Q405 319 409 232V229Q409 220 402 213Q396 206 385 206H95Q95 129 127.5 82.0Q160 35 230 35Q266 35 297.5 50.5Q329 66 346 91Q352 99 361.5 101.0Q371 103 379 97Q387 92 389.0 82.0Q391 72 385 64Q361 29 319.5 8.0Q278 -13 230 -13ZM98 253H357Q347 310 313.5 341.0Q280 372 230 372Q176 372 142.5 341.0Q109 310 98 253Z" transform="translate(225.144, 72) scale(0.072, -0.072)" /><path d="M80 -13Q70 -13 63.5 -6.5Q57 0 57 10V398Q57 408 63.5 415.0Q70 422 80 422Q90 422 97.0 415.0Q104 408 104 398V365Q127 391 159.0 406.0Q191 421 228 421Q297 421 336.5 375.5Q376 330 376 252V12Q376 2 369.5 -5.0Q363 -12 353 -12Q343 -12 336.0 -5.0Q329 2 329 12V252Q329 275 322.0 303.0Q315 331 293.5 351.5Q272 372 228 372Q170 372 137.0 340.0Q104 308 104 249V10Q104 0 97.0 -6.5Q90 -13 80 -13Z" transform="translate(258.624, 72) scale(0.072, -0.072)" /><path d="M367 -14Q357 -14 350.0 -7.5Q343 -1 343 9V17L220 -7Q174 -16 142.0 -12.0Q110 -8 88 8Q72 21 62.5 40.5Q53 60 51 85Q45 143 76.5 180.5Q108 218 174 229L343 258V286Q343 306 336.5 328.5Q330 351 310 362Q294 372 269 372Q207 372 116 316Q107 311 98.0 313.5Q89 316 84 324Q78 333 80.5 342.5Q83 352 91 356Q150 392 194.0 405.5Q238 419 269 419Q290 419 305.5 414.5Q321 410 332 404Q361 388 376.0 357.5Q391 327 391 286V9Q391 -1 384.5 -7.5Q378 -14 367 -14ZM212 41 343 65V210L183 183Q142 176 123.5 160.0Q105 144 101.0 125.5Q97 107 98 90Q101 59 117 47Q141 29 212 41Z" transform="translate(289.8, 72) scale(0.072, -0.072)" /><path d="M182 -14Q172 -14 165.5 -7.5Q159 -1 159 9V358H44Q34 358 27.0 365.5Q20 373 20 383Q20 393 27.0 399.5Q34 406 44 406H182Q193 406 200.0 399.5Q207 393 207 383V9Q207 -1 200.0 -7.5Q193 -14 182 -14ZM170 587Q156 587 147.0 595.0Q138 603 138 613V675Q138 685 147.0 693.5Q156 702 170 702Q184 702 192.5 693.5Q201 685 201 675V613Q201 603 192.5 595.0Q184 587 170 587Z" transform="translate(322.05600000000004, 72) scale(0.072, -0.072)" /><path d="M385 -14Q375 -14 368.5 -7.5Q362 -1 362 9V51Q339 22 306.0 4.5Q273 -13 230 -13Q145 -13 96.0 45.5Q47 104 47 204Q47 305 96.0 363.0Q145 421 230 421Q273 421 306.0 403.0Q339 385 362 356V707Q362 717 368.5 724.0Q375 731 385 731Q395 731 402.0 724.0Q409 717 409 707V9Q409 -1 402.0 -7.5Q395 -14 385 -14ZM230 35Q294 35 328.0 79.0Q362 123 362 204Q362 284 328.0 328.0Q294 372 230 372Q166 372 130.0 328.0Q94 284 94 204Q94 123 130.0 79.0Q166 35 230 35Z" transform="translate(342.36, 72) scale(0.072, -0.072)" /><path d="M230 -13Q145 -13 96.0 45.5Q47 104 47 204Q47 305 96.0 363.0Q145 421 230 421Q314 421 363.5 363.0Q413 305 413 204Q413 104 363.5 45.5Q314 -13 230 -13ZM230 35Q295 35 330.0 79.0Q365 123 365 204Q365 284 330.0 328.0Q295 372 230 372Q166 372 130.0 328.0Q94 284 94 204Q94 123 130.0 79.0Q166 35 230 35Z" transform="translate(377.208, 72) scale(0.072, -0.072)" /></g></svg>
